icons/src/scalable/default/status/touch-disabled-symbolic.svg

<?xml version="1.0" encoding="UTF-8" standalone="no"?>
<svg
   xmlns:dc="http://purl.org/dc/elements/1.1/"
   xmlns:cc="http://creativecommons.org/ns#"
   xmlns:rdf="http://www.w3.org/1999/02/22-rdf-syntax-ns#"
   xmlns:svg="http://www.w3.org/2000/svg"
   xmlns="http://www.w3.org/2000/svg"
   xmlns:sodipodi="http://sodipodi.sourceforge.net/DTD/sodipodi-0.dtd"
   xmlns:inkscape="http://www.inkscape.org/namespaces/inkscape"
   version="1.1"
   viewBox="0 0 16 16"
   id="svg28"
   sodipodi:docname="touch-disabled-symbolic.svg"
   inkscape:version="1.0.2 (e86c870879, 2021-01-15)">
  <metadata
     id="metadata34">
    <rdf:RDF>
      <cc:Work
         rdf:about="">
        <dc:format>image/svg+xml</dc:format>
        <dc:type
           rdf:resource="http://purl.org/dc/dcmitype/StillImage" />
        <dc:title></dc:title>
      </cc:Work>
    </rdf:RDF>
  </metadata>
  <defs
     id="defs32" />
  <sodipodi:namedview
     pagecolor="#ffffff"
     bordercolor="#666666"
     borderopacity="1"
     objecttolerance="10"
     gridtolerance="10"
     guidetolerance="10"
     inkscape:pageopacity="0"
     inkscape:pageshadow="2"
     inkscape:window-width="1920"
     inkscape:window-height="1016"
     id="namedview30"
     showgrid="true"
     inkscape:zoom="38.890873"
     inkscape:cx="6.7589417"
     inkscape:cy="11.435552"
     inkscape:window-x="0"
     inkscape:window-y="27"
     inkscape:window-maximized="1"
     inkscape:current-layer="svg28">
    <inkscape:grid
       type="xygrid"
       id="grid1485" />
  </sodipodi:namedview>
  <g
     transform="translate(-630,-100)"
     fill="#bebebe"
     id="g26"
     style="opacity:0.5">
    <g
       shape-rendering="auto"
       id="g22">
      <path
         d="m633.38 102.82a0.50005 0.50005 0 0 0-0.40039 0.24219c-0.6413 1.0306-0.98047 2.2198-0.98047 3.4336a0.50005 0.50005 0 1 0 1 0c0-1.0272 0.28741-2.0342 0.83008-2.9062a0.50005 0.50005 0 0 0-0.44922-0.76953z"
         color="#000000"
         color-rendering="auto"
         dominant-baseline="auto"
         image-rendering="auto"
         solid-color="#000000"
         style="font-feature-settings:normal;font-variant-alternates:normal;font-variant-caps:normal;font-variant-ligatures:normal;font-variant-numeric:normal;font-variant-position:normal;isolation:auto;mix-blend-mode:normal;shape-padding:0;text-decoration-color:#000000;text-decoration-line:none;text-decoration-style:solid;text-indent:0;text-orientation:mixed;text-transform:none;white-space:normal"
         id="path2" />
      <path
         d="m632.49 105.99a0.50005 0.50005 0 0 0-0.49219 0.50781v5.0625a0.50005 0.50005 0 1 0 1 0v-5.0625a0.50005 0.50005 0 0 0-0.50781-0.50781z"
         color="#000000"
         color-rendering="auto"
         dominant-baseline="auto"
         fill-rule="evenodd"
         image-rendering="auto"
         solid-color="#000000"
         style="font-feature-settings:normal;font-variant-alternates:normal;font-variant-caps:normal;font-variant-ligatures:normal;font-variant-numeric:normal;font-variant-position:normal;isolation:auto;mix-blend-mode:normal;shape-padding:0;text-decoration-color:#000000;text-decoration-line:none;text-decoration-style:solid;text-indent:0;text-orientation:mixed;text-transform:none;white-space:normal"
         id="path4" />
      <path
         d="m638.5 103c-1.9271 0-3.5 1.5729-3.5 3.5a0.50005 0.50005 0 1 0 1 0c0-1.3867 1.1134-2.5 2.5-2.5s2.5 1.1133 2.5 2.5a0.50005 0.50005 0 1 0 1 0c0-1.9271-1.5729-3.5-3.5-3.5z"
         color="#000000"
         color-rendering="auto"
         dominant-baseline="auto"
         image-rendering="auto"
         solid-color="#000000"
         style="font-feature-settings:normal;font-variant-alternates:normal;font-variant-caps:normal;font-variant-ligatures:normal;font-variant-numeric:normal;font-variant-position:normal;isolation:auto;mix-blend-mode:normal;shape-padding:0;text-decoration-color:#000000;text-decoration-line:none;text-decoration-style:solid;text-indent:0;text-orientation:mixed;text-transform:none;white-space:normal"
         id="path6" />
      <g
         fill-rule="evenodd"
         id="g18">
        <path
           id="path8"
           style="font-feature-settings:normal;font-variant-alternates:normal;font-variant-caps:normal;font-variant-ligatures:normal;font-variant-numeric:normal;font-variant-position:normal;isolation:auto;mix-blend-mode:normal;shape-padding:0;text-decoration-color:#000000;text-decoration-line:none;text-decoration-style:solid;text-indent:0;text-orientation:mixed;text-transform:none;white-space:normal"
           d="M 8.4902344 5.9902344 A 0.50005 0.50005 0 0 0 7.9980469 6.4980469 L 7.9980469 11.498047 C 7.9980469 11.498047 7.9977525 12.045373 8.1328125 12.720703 C 8.255679 13.335063 8.4950919 14.076465 9 14.671875 L 9 11.541016 C 8.9999545 11.53646 8.9980469 11.498047 8.9980469 11.498047 L 8.9980469 6.4980469 A 0.50005 0.50005 0 0 0 8.4902344 5.9902344 z "
           transform="translate(630,100)" />
        <path
           d="m635.49 105.99a0.50005 0.50005 0 0 0-0.49219 0.50781v1a0.50005 0.50005 0 1 0 1 0v-1a0.50005 0.50005 0 0 0-0.50781-0.50781z"
           color="#000000"
           color-rendering="auto"
           dominant-baseline="auto"
           image-rendering="auto"
           solid-color="#000000"
           style="font-feature-settings:normal;font-variant-alternates:normal;font-variant-caps:normal;font-variant-ligatures:normal;font-variant-numeric:normal;font-variant-position:normal;isolation:auto;mix-blend-mode:normal;shape-padding:0;text-decoration-color:#000000;text-decoration-line:none;text-decoration-style:solid;text-indent:0;text-orientation:mixed;text-transform:none;white-space:normal"
           id="path10" />
        <path
           d="m635.49 109.99a0.50005 0.50005 0 0 0-0.49219 0.50781v3a0.50005 0.50005 0 1 0 1 0v-3a0.50005 0.50005 0 0 0-0.50781-0.50781z"
           color="#000000"
           color-rendering="auto"
           dominant-baseline="auto"
           image-rendering="auto"
           solid-color="#000000"
           style="font-feature-settings:normal;font-variant-alternates:normal;font-variant-caps:normal;font-variant-ligatures:normal;font-variant-numeric:normal;font-variant-position:normal;isolation:auto;mix-blend-mode:normal;shape-padding:0;text-decoration-color:#000000;text-decoration-line:none;text-decoration-style:solid;text-indent:0;text-orientation:mixed;text-transform:none;white-space:normal"
           id="path12" />
        <path
           id="path14"
           style="font-feature-settings:normal;font-variant-alternates:normal;font-variant-caps:normal;font-variant-ligatures:normal;font-variant-numeric:normal;font-variant-position:normal;isolation:auto;mix-blend-mode:normal;shape-padding:0;text-decoration-color:#000000;text-decoration-line:none;text-decoration-style:solid;text-indent:0;text-orientation:mixed;text-transform:none;white-space:normal"
           d="M 11.490234 5.9902344 A 0.50005 0.50005 0 0 0 10.998047 6.4980469 L 10.998047 9 L 11.998047 9 L 11.998047 6.4980469 A 0.50005 0.50005 0 0 0 11.490234 5.9902344 z "
           transform="translate(630,100)" />
        <path
           d="m644.49 105.99a0.50005 0.50005 0 0 0-0.49219 0.50781v1a0.50005 0.50005 0 1 0 1 0v-1a0.50005 0.50005 0 0 0-0.50781-0.50781z"
           color="#000000"
           color-rendering="auto"
           dominant-baseline="auto"
           image-rendering="auto"
           solid-color="#000000"
           style="font-feature-settings:normal;font-variant-alternates:normal;font-variant-caps:normal;font-variant-ligatures:normal;font-variant-numeric:normal;font-variant-position:normal;isolation:auto;mix-blend-mode:normal;shape-padding:0;text-decoration-color:#000000;text-decoration-line:none;text-decoration-style:solid;text-indent:0;text-orientation:mixed;text-transform:none;white-space:normal"
           id="path16" />
      </g>
      <path
         d="m638.57 100c-1.1152-0.01141-2.2322 0.26344-3.2383 0.82617a0.50005 0.50005 0 1 0 0.48633 0.87305c1.7039-0.95301 3.7847-0.93104 5.4688 0.0566 1.684 0.98768 2.7168 2.7918 2.7168 4.7441a0.50005 0.50005 0 1 0 1 0c0-2.3056-1.2222-4.441-3.2109-5.6074-0.99439-0.5832-2.1075-0.88117-3.2226-0.89258z"
         color="#000000"
         color-rendering="auto"
         dominant-baseline="auto"
         image-rendering="auto"
         solid-color="#000000"
         style="font-feature-settings:normal;font-variant-alternates:normal;font-variant-caps:normal;font-variant-ligatures:normal;font-variant-numeric:normal;font-variant-position:normal;isolation:auto;mix-blend-mode:normal;shape-padding:0;text-decoration-color:#000000;text-decoration-line:none;text-decoration-style:solid;text-indent:0;text-orientation:mixed;text-transform:none;white-space:normal"
         id="path20" />
    </g>
  </g>
  <path
     d="m 10.502,9.795 -0.707,0.707 0.353,0.354 4,4 0.354,0.353 0.707,-0.707 -0.354,-0.354 -4,-4 z"
     fill-rule="evenodd"
     overflow="visible"
     style="font-weight:400;font-family:sans-serif;font-variant-ligatures:normal;font-variant-position:normal;font-variant-caps:normal;font-variant-numeric:normal;font-variant-alternates:normal;font-feature-settings:normal;text-indent:0;text-decoration:none;text-decoration-line:none;text-decoration-style:solid;text-decoration-color:#000000;text-transform:none;text-orientation:mixed;white-space:normal;shape-padding:0;isolation:auto;mix-blend-mode:normal;fill:#bebebe"
     id="path36" />
  <path
     d="m 14.502,9.795 -4.707,4.707 0.707,0.707 0.354,-0.353 4,-4 0.353,-0.354 z"
     fill-rule="evenodd"
     overflow="visible"
     style="font-weight:400;font-family:sans-serif;font-variant-ligatures:normal;font-variant-position:normal;font-variant-caps:normal;font-variant-numeric:normal;font-variant-alternates:normal;font-feature-settings:normal;text-indent:0;text-decoration:none;text-decoration-line:none;text-decoration-style:solid;text-decoration-color:#000000;text-transform:none;text-orientation:mixed;white-space:normal;shape-padding:0;isolation:auto;mix-blend-mode:normal;fill:#bebebe"
     id="path38" />
</svg>

<svg version="1.1" viewBox="0 0 16 16" xmlns="http://www.w3.org/2000/svg">
 <g fill="#bebebe">
  <g transform="translate(-630,-100)" opacity=".5">
   <g shape-rendering="auto">
    <path d="m633.38 102.82a0.50005 0.50005 0 0 0-0.40039 0.24219c-0.6413 1.0306-0.98047 2.2198-0.98047 3.4336a0.50005 0.50005 0 1 0 1 0c0-1.0272 0.28741-2.0342 0.83008-2.9062a0.50005 0.50005 0 0 0-0.44922-0.76953z" color="#000000" color-rendering="auto" dominant-baseline="auto" image-rendering="auto" solid-color="#000000" style="font-feature-settings:normal;font-variant-alternates:normal;font-variant-caps:normal;font-variant-ligatures:normal;font-variant-numeric:normal;font-variant-position:normal;isolation:auto;mix-blend-mode:normal;shape-padding:0;text-decoration-color:#000000;text-decoration-line:none;text-decoration-style:solid;text-indent:0;text-orientation:mixed;text-transform:none;white-space:normal"/>
    <path d="m632.49 105.99a0.50005 0.50005 0 0 0-0.49219 0.50781v5.0625a0.50005 0.50005 0 1 0 1 0v-5.0625a0.50005 0.50005 0 0 0-0.50781-0.50781z" color="#000000" color-rendering="auto" dominant-baseline="auto" fill-rule="evenodd" image-rendering="auto" solid-color="#000000" style="font-feature-settings:normal;font-variant-alternates:normal;font-variant-caps:normal;font-variant-ligatures:normal;font-variant-numeric:normal;font-variant-position:normal;isolation:auto;mix-blend-mode:normal;shape-padding:0;text-decoration-color:#000000;text-decoration-line:none;text-decoration-style:solid;text-indent:0;text-orientation:mixed;text-transform:none;white-space:normal"/>
    <path d="m638.5 103c-1.9271 0-3.5 1.5729-3.5 3.5a0.50005 0.50005 0 1 0 1 0c0-1.3867 1.1134-2.5 2.5-2.5s2.5 1.1133 2.5 2.5a0.50005 0.50005 0 1 0 1 0c0-1.9271-1.5729-3.5-3.5-3.5z" color="#000000" color-rendering="auto" dominant-baseline="auto" image-rendering="auto" solid-color="#000000" style="font-feature-settings:normal;font-variant-alternates:normal;font-variant-caps:normal;font-variant-ligatures:normal;font-variant-numeric:normal;font-variant-position:normal;isolation:auto;mix-blend-mode:normal;shape-padding:0;text-decoration-color:#000000;text-decoration-line:none;text-decoration-style:solid;text-indent:0;text-orientation:mixed;text-transform:none;white-space:normal"/>
    <g fill-rule="evenodd">
     <path transform="translate(630,100)" d="m8.4902 5.9902a0.50005 0.50005 0 0 0-0.49219 0.50781v5s-2.944e-4 0.54733 0.13477 1.2227c0.12287 0.61436 0.36228 1.3558 0.86719 1.9512v-3.1309c-4.55e-5 -0.004556-0.0019531-0.042969-0.0019531-0.042969v-5a0.50005 0.50005 0 0 0-0.50781-0.50781z" style="font-feature-settings:normal;font-variant-alternates:normal;font-variant-caps:normal;font-variant-ligatures:normal;font-variant-numeric:normal;font-variant-position:normal;isolation:auto;mix-blend-mode:normal;shape-padding:0;text-decoration-color:#000000;text-decoration-line:none;text-decoration-style:solid;text-indent:0;text-orientation:mixed;text-transform:none;white-space:normal"/>
     <path d="m635.49 105.99a0.50005 0.50005 0 0 0-0.49219 0.50781v1a0.50005 0.50005 0 1 0 1 0v-1a0.50005 0.50005 0 0 0-0.50781-0.50781z" color="#000000" color-rendering="auto" dominant-baseline="auto" image-rendering="auto" solid-color="#000000" style="font-feature-settings:normal;font-variant-alternates:normal;font-variant-caps:normal;font-variant-ligatures:normal;font-variant-numeric:normal;font-variant-position:normal;isolation:auto;mix-blend-mode:normal;shape-padding:0;text-decoration-color:#000000;text-decoration-line:none;text-decoration-style:solid;text-indent:0;text-orientation:mixed;text-transform:none;white-space:normal"/>
     <path d="m635.49 109.99a0.50005 0.50005 0 0 0-0.49219 0.50781v3a0.50005 0.50005 0 1 0 1 0v-3a0.50005 0.50005 0 0 0-0.50781-0.50781z" color="#000000" color-rendering="auto" dominant-baseline="auto" image-rendering="auto" solid-color="#000000" style="font-feature-settings:normal;font-variant-alternates:normal;font-variant-caps:normal;font-variant-ligatures:normal;font-variant-numeric:normal;font-variant-position:normal;isolation:auto;mix-blend-mode:normal;shape-padding:0;text-decoration-color:#000000;text-decoration-line:none;text-decoration-style:solid;text-indent:0;text-orientation:mixed;text-transform:none;white-space:normal"/>
     <path transform="translate(630,100)" d="m11.49 5.9902a0.50005 0.50005 0 0 0-0.49219 0.50781v2.502h1v-2.502a0.50005 0.50005 0 0 0-0.50781-0.50781z" style="font-feature-settings:normal;font-variant-alternates:normal;font-variant-caps:normal;font-variant-ligatures:normal;font-variant-numeric:normal;font-variant-position:normal;isolation:auto;mix-blend-mode:normal;shape-padding:0;text-decoration-color:#000000;text-decoration-line:none;text-decoration-style:solid;text-indent:0;text-orientation:mixed;text-transform:none;white-space:normal"/>
     <path d="m644.49 105.99a0.50005 0.50005 0 0 0-0.49219 0.50781v1a0.50005 0.50005 0 1 0 1 0v-1a0.50005 0.50005 0 0 0-0.50781-0.50781z" color="#000000" color-rendering="auto" dominant-baseline="auto" image-rendering="auto" solid-color="#000000" style="font-feature-settings:normal;font-variant-alternates:normal;font-variant-caps:normal;font-variant-ligatures:normal;font-variant-numeric:normal;font-variant-position:normal;isolation:auto;mix-blend-mode:normal;shape-padding:0;text-decoration-color:#000000;text-decoration-line:none;text-decoration-style:solid;text-indent:0;text-orientation:mixed;text-transform:none;white-space:normal"/>
    </g>
    <path d="m638.57 100c-1.1152-0.01141-2.2322 0.26344-3.2383 0.82617a0.50005 0.50005 0 1 0 0.48633 0.87305c1.7039-0.95301 3.7847-0.93104 5.4688 0.0566 1.684 0.98768 2.7168 2.7918 2.7168 4.7441a0.50005 0.50005 0 1 0 1 0c0-2.3056-1.2222-4.441-3.2109-5.6074-0.99439-0.5832-2.1075-0.88117-3.2226-0.89258z" color="#000000" color-rendering="auto" dominant-baseline="auto" image-rendering="auto" solid-color="#000000" style="font-feature-settings:normal;font-variant-alternates:normal;font-variant-caps:normal;font-variant-ligatures:normal;font-variant-numeric:normal;font-variant-position:normal;isolation:auto;mix-blend-mode:normal;shape-padding:0;text-decoration-color:#000000;text-decoration-line:none;text-decoration-style:solid;text-indent:0;text-orientation:mixed;text-transform:none;white-space:normal"/>
   </g>
  </g>
  <path d="m10.502 9.795-0.707 0.707 0.353 0.354 4 4 0.354 0.353 0.707-0.707-4.354-4.354z" fill-rule="evenodd" overflow="visible" style="font-feature-settings:normal;font-variant-alternates:normal;font-variant-caps:normal;font-variant-ligatures:normal;font-variant-numeric:normal;font-variant-position:normal;isolation:auto;mix-blend-mode:normal;shape-padding:0;text-decoration-color:#000000;text-decoration-line:none;text-decoration-style:solid;text-indent:0;text-orientation:mixed;text-transform:none;white-space:normal"/>
  <path d="m14.502 9.795-4.707 4.707 0.707 0.707 0.354-0.353 4-4 0.353-0.354z" fill-rule="evenodd" overflow="visible" style="font-feature-settings:normal;font-variant-alternates:normal;font-variant-caps:normal;font-variant-ligatures:normal;font-variant-numeric:normal;font-variant-position:normal;isolation:auto;mix-blend-mode:normal;shape-padding:0;text-decoration-color:#000000;text-decoration-line:none;text-decoration-style:solid;text-indent:0;text-orientation:mixed;text-transform:none;white-space:normal"/>
 </g>
</svg>
